X: 2
T: Dever The Dancer
R: slip jig
M: 9/8
L: 1/8
K: Edor
BEE BEF ~G2A|BEE BAG FGA|BEE BEF ~G2A|Bcd ~A2G FED:|ded =cAF ~G2D|GBd def gfe|ded =cAF ~G2A|B^cd ~A2G FED:|


Tune 148	Setting 28116

